X: 20
T:Rogha An Ghabha (The Blacksmiths Fancy)
M:4/4
L:1/8
F:http://blackrosetheband.googlepages.com/ABCTUNES.ABC May 2009
Q:1/4=200
S:Altan - Altan Track 7
R:reel
K:D
d2 =c2|:A2 GE FDDF|G2 E=C G,CEG|AFGE FDDC|DEFG Add=c|
A2 GE FDDF|G2 E=C G,CEC|DEFG Adde|1 fage fdd=c:|2 fage fdde:|
|:fd ~d2 dfaf|ecAG FD de|fd ~d2 dfaf|efga fdde|fd ~d2 dfaf|
ecAG FDDC|DEFG Adde|1 fage fdde:|2 fage fdd=c|

